X:1
T:Sheltered, 76.76 D
T:Sheltered, 76.76 D
T:William James Kirkpatrick, 1900
T:Public Domain Courtesy of the Cyber Hymnal™
C:William James Kirkpatrick, 1900
Z:Public Domain
Z:Courtesy of the Cyber Hymnal™
%%score ( 1 2 ) ( 3 4 )
L:1/8
Q:1/4=95
M:6/8
K:F
V:1 treble 
V:2 treble 
V:3 bass 
V:4 bass 
V:1
 A^GA B2 A | [FA]3 [EG]2 z | G^FG A2 G | F3- F2 z | c=Bc f2 c | e3 [Fd]2 z | BAB c2 B | %7
 [CA]3- [CA]2 z | [Fd][Fd][Fd] [Fc]2 F | [EB]3 [FA]2 z | [FA][FA][FA] [^Fd]2 [FA] | %11
 ([Ac]3 [GB]2) z | [EB][EA][EB] [Be]2 [Ed] | [Fc]3 [FA]2 z | [=B,F][B,E][B,F] !fermata!A2 [EG] | %15
 [CF]3- [CF]2 z |] %16
V:2
 F6 | x6 | x6 | x6 | F6 | F3- x3 | x6 | x6 | x5 F | x6 | x6 | x6 | x6 | x6 | x3 (CF) x | x6 |] %16
V:3
 C=B,C D2 C | C3 B,2 z | B,A,A, B,2 B, | [F,A,]3- [F,A,]2 z | A,^G,A, D2 A, | C3 B,2 z | %6
 G,^F,G, A,2 G, | F,3- F,2 z | B,B,B, [A,C]2 [A,C] | [G,C]3 [F,C]2 z | %10
 [F,C][F,C][F,A,] [D,A,]2 [D,D] | [G,D]3- [G,D]2 z | [C,C][C,C][C,C] [C,C]2 [C,B,] | %13
 [F,A,]3 [F,C]2 z | [D,G,][D,G,][D,G,] (!fermata!F,C)[C,B,] | [F,A,]3- [F,A,]2 z |] %16
V:4
 x6 | x6 | C,6 | x6 | x6 | x6 | C,6 | F,3- F,2 x | B,B,B, x3 | x6 | x6 | x6 | x6 | x6 | x3 C,2 x | %15
 x6 |] %16

